X: 1
T: Janet Geater
M: 4/4
L: 1/8
R: reel
K: Amix
af|:ec~c2 ecAc|ecAB c2af|ec ~c2 ecAc|dBGB d2 af|
ec~c2 ecAc|ecAB c2 cd|ea(3aaa eged|1BABd e2af:|2BABd e2 cd||
|:ea~a2 eg~g2|efed BABd|ea~a2 eg~g2|edBd eA (3AAA|
ea~a2 eg~g2|efed BABd|ea~a2 eged|1BABd e2cd:|2BABd e2af||
